X:23
T: Der Maedchenmoerder (Halewijn - Ulinger)
N: Q0041E
O: Suedosteuropa, Rumaenien, Siebenbuergen, Muehlbach
R: Ballade, Verfuehrung, Mord, Mordversuch bzw. Rache
M: 4/4
L: 1/8
K: G
BBB | E3B,E2F2 | E4z
BBB | A2A2B2A2 | G4z
ddd | G3Gc2B2 | A4z
EDC | B,DG2B3A | G4z

@@@ Tune index: 759
